X:38
L:1/8
Q:1/8=160
M:6/8
K:D
"^\"Part A\"" B |S d2 e d2 B | ABA AFD | FGA A2 f | g2 e ede | f2 e d2 B | ABA AFD | FGA Ade | 
 f2 d d2 ||"^final" f2 d d3 |]"^\"Part B\"" g | fga afa | afa agf | b2 e b2 e | b2 e gfe | 
 fga afa | aba agf | bab e3 | e2 f gfe ||"^\"Part C: Trio\"" F/E/ | D>ED DFA | B3- B2 c/d/ | 
 A>FD DEF | E3- E2 F/E/ | D>ED DFA | B3- B2 c/d/ | AdF EDE | D3- D2 A!D.S.! ||

